%
(Header)
(Generated by gcodetools from Inkscape.)
(Using default header. To add your own header create file "header" in the output dir.)
M3
(Header end.)
G21 (All units in mm)

(Start cutting path id: path17065)
(Change tool to Default tool)

G00 Z2.900000
G00 X2.513542 Y15.889028

G01 Z-0.225000 F300.0(Penetrate)
G03 X1.618902 Y15.718523 Z-0.225000 I0.000052 J-2.432612 F300.000000
G03 X0.926042 Y15.262847 Z-0.225000 I0.748712 J-1.893015
G03 X0.470659 Y14.566906 Z-0.225000 I1.450232 J-1.445903
G03 X0.299861 Y13.666528 Z-0.225000 I2.287814 J-0.900378
G01 X0.299861 Y4.018056 Z-0.225000
G01 X2.892778 Y4.018056 Z-0.225000
G01 X2.892778 Y6.549250 Z-0.225000
G02 X2.965990 Y6.722983 Z-0.225000 I0.250006 J-0.003062
G02 X3.139722 Y6.796195 Z-0.225000 I0.176794 J-0.176794
G01 X3.757083 Y6.796195 Z-0.225000
G02 X3.930816 Y6.722983 Z-0.225000 I-0.003062 J-0.250006
G02 X4.004028 Y6.549250 Z-0.225000 I-0.176794 J-0.176794
G01 X4.004028 Y2.527584 Z-0.225000
G03 X4.177024 Y1.606341 Z-0.225000 I2.539305 J-0.000020
G03 X4.621389 Y0.913611 Z-0.225000 I1.938785 J0.754784
G03 X5.311121 Y0.468938 Z-0.225000 I1.443192 J1.481276
G03 X6.226528 Y0.296250 Z-0.225000 I0.915407 J2.339908
G01 X10.292292 Y0.296250 Z-0.225000
G01 X10.292292 Y2.897972 Z-0.225000
G01 X6.826250 Y2.897972 Z-0.225000
G02 X6.652517 Y2.971184 Z-0.225000 I0.003062 J0.250006
G02 X6.579306 Y3.144916 Z-0.225000 I0.176794 J0.176794
G01 X6.579306 Y13.666528 Z-0.225000
G03 X6.408500 Y14.566909 Z-0.225000 I-2.458728 J-0.000039
G03 X5.953125 Y15.262847 Z-0.225000 I-1.905653 J-0.749977
G03 X5.260249 Y15.718527 Z-0.225000 I-1.441616 J-1.437417
G03 X4.365625 Y15.889028 Z-0.225000 I-0.894676 J-2.262078
G01 X2.513542 Y15.889028 Z-0.225000
G01 X2.513542 Y15.889028 Z-0.225000
G00 Z2.900000

(End cutting path id: path17065)


(Start cutting path id: path17063)
(Change tool to Default tool)

G00 Z2.900000
G00 X2.513542 Y16.135972

G01 Z-0.225000 F300.0(Penetrate)
G03 X1.529739 Y15.950290 Z-0.225000 I0.000054 J-2.699368 F300.000000
G03 X0.749653 Y15.439236 Z-0.225000 I0.827318 J-2.113740
G03 X0.238929 Y14.655930 Z-0.225000 I1.617802 J-1.612976
G03 X0.052917 Y13.666528 Z-0.225000 I2.538320 J-0.989403
G01 X0.052917 Y3.771111 Z-0.225000
G01 X3.139722 Y3.771111 Z-0.225000
G01 X3.139722 Y6.549250 Z-0.225000
G01 X3.757083 Y6.549250 Z-0.225000
G01 X3.757083 Y2.527584 Z-0.225000
G03 X3.946047 Y1.516532 Z-0.225000 I2.799186 J-0.000022
G03 X4.445000 Y0.737222 Z-0.225000 I2.172199 J0.841368
G03 X5.221151 Y0.237925 Z-0.225000 I1.614966 J1.657538
G03 X6.226528 Y0.049306 Z-0.225000 I1.005377 J2.585112
G01 X10.539236 Y0.049306 Z-0.225000
G01 X10.539236 Y3.144916 Z-0.225000
G01 X6.826250 Y3.144916 Z-0.225000
G01 X6.826250 Y13.666528 Z-0.225000
G03 X6.640229 Y14.655933 Z-0.225000 I-2.724460 J-0.000043
G03 X6.129514 Y15.439236 Z-0.225000 I-2.128570 J-0.829688
G03 X5.349413 Y15.950292 Z-0.225000 I-1.607454 J-1.602775
G03 X4.365625 Y16.135972 Z-0.225000 I-0.983842 J-2.513649
G01 X2.513542 Y16.135972 Z-0.225000
G01 X2.513542 Y16.135972 Z-0.225000
G00 Z2.900000

(End cutting path id: path17063)


(Start cutting path id: path13701)
(Change tool to Default tool)

G00 Z2.900000
G00 X2.513542 Y16.135972

G01 Z-0.225000 F300.0(Penetrate)
G03 X1.529739 Y15.950290 Z-0.225000 I0.000054 J-2.699368 F300.000000
G03 X0.749653 Y15.439236 Z-0.225000 I0.827318 J-2.113740
G03 X0.238929 Y14.655930 Z-0.225000 I1.617802 J-1.612976
G03 X0.052917 Y13.666528 Z-0.225000 I2.538320 J-0.989403
G01 X0.052917 Y3.771111 Z-0.225000
G01 X3.139722 Y3.771111 Z-0.225000
G01 X3.139722 Y6.549250 Z-0.225000
G01 X3.757083 Y6.549250 Z-0.225000
G01 X3.757083 Y2.527584 Z-0.225000
G03 X3.946047 Y1.516532 Z-0.225000 I2.799186 J-0.000022
G03 X4.445000 Y0.737222 Z-0.225000 I2.172199 J0.841368
G03 X5.221151 Y0.237925 Z-0.225000 I1.614966 J1.657538
G03 X6.226528 Y0.049306 Z-0.225000 I1.005377 J2.585112
G01 X10.539236 Y0.049306 Z-0.225000
G01 X10.539236 Y3.144916 Z-0.225000
G01 X6.826250 Y3.144916 Z-0.225000
G01 X6.826250 Y13.666528 Z-0.225000
G03 X6.640229 Y14.655933 Z-0.225000 I-2.724460 J-0.000043
G03 X6.129514 Y15.439236 Z-0.225000 I-2.128570 J-0.829688
G03 X5.349413 Y15.950292 Z-0.225000 I-1.607454 J-1.602775
G03 X4.365625 Y16.135972 Z-0.225000 I-0.983842 J-2.513649
G01 X2.513542 Y16.135972 Z-0.225000
G01 X2.513542 Y16.135972 Z-0.225000
G00 Z2.900000

(End cutting path id: path13701)


(Start cutting path id: path14520)
(Change tool to Default tool)

G00 Z2.900000
G00 X2.513542 Y16.638681

G01 Z-0.225000 F300.0(Penetrate)
G03 X1.352080 Y16.418682 Z-0.225000 I0.000066 J-3.176259 F300.000000
G03 X0.396875 Y15.792014 Z-0.225000 I1.020018 J-2.596097
G03 X-0.229389 Y14.833310 Z-0.225000 I1.989389 J-1.983452
G03 X-0.449792 Y13.666528 Z-0.225000 I2.978194 J-1.166782
G01 X-0.449792 Y3.771111 Z-0.225000
G03 X-0.412239 Y3.578321 Z-0.225000 I0.500043 J-0.002651
G03 X-0.303332 Y3.414866 Z-0.225000 I0.462490 J0.190139
G03 X-0.139874 Y3.305964 Z-0.225000 I0.353584 J0.353594
G03 X0.052917 Y3.268417 Z-0.225000 I0.190126 J0.462496
G01 X3.139722 Y3.268417 Z-0.225000
G03 X3.197558 Y3.273831 Z-0.225000 I-0.017606 J0.499740
G03 X3.254375 Y3.285915 Z-0.225000 I-0.075442 J0.494326
G01 X3.254375 Y2.527471 Z-0.225000
G03 X3.475752 Y1.342424 Z-0.225000 I3.282367 J-0.000026
G03 X4.083403 Y0.393137 Z-0.225000 I2.645018 J1.023983
G03 X4.087727 Y0.384345 Z-0.225000 I0.450860 J0.216276
G03 X4.092222 Y0.375639 Z-0.225000 I0.446536 J0.225068
G03 X5.042041 Y-0.233199 Z-0.225000 I1.958469 J2.010011
G03 X6.226528 Y-0.453417 Z-0.225000 I1.184487 J3.075390
G01 X10.539236 Y-0.453417 Z-0.225000
G03 X10.732034 Y-0.415867 Z-0.225000 I0.002666 J0.500043
G03 X10.895495 Y-0.306958 Z-0.225000 I-0.190132 J0.462493
G03 X11.004400 Y-0.143493 Z-0.225000 I-0.353594 J0.353584
G03 X11.041945 Y0.049306 Z-0.225000 I-0.462498 J0.190119
G01 X11.041945 Y3.144916 Z-0.225000
G03 X11.012220 Y3.313634 Z-0.225000 I-0.500049 J-0.001122
G03 X10.927292 Y3.462416 Z-0.225000 I-0.470324 J-0.169839
G03 X11.010758 Y3.607055 Z-0.225000 I-0.385296 J0.318743
G03 X11.041945 Y3.771111 Z-0.225000 I-0.468762 J0.174104
G01 X11.041945 Y9.785972 Z-0.225000
G03 X11.103133 Y9.773359 Z-0.225000 I0.131352 J0.482490
G03 X11.165417 Y9.768474 Z-0.225000 I0.070163 J0.495103
G01 X14.225764 Y9.768474 Z-0.225000
G03 X14.288048 Y9.773359 Z-0.225000 I-0.007879 J0.499988
G03 X14.349236 Y9.785972 Z-0.225000 I-0.070163 J0.495103
G01 X14.349236 Y3.771111 Z-0.225000
G03 X14.386789 Y3.578321 Z-0.225000 I0.500043 J-0.002651
G03 X14.495695 Y3.414866 Z-0.225000 I0.462490 J0.190139
G03 X14.659153 Y3.305964 Z-0.225000 I0.353584 J0.353594
G03 X14.851945 Y3.268417 Z-0.225000 I0.190126 J0.462496
G01 X19.164653 Y3.268417 Z-0.225000
G03 X20.341107 Y3.486193 Z-0.225000 I-0.000000 J3.286566
G03 X21.281320 Y4.097416 Z-0.225000 I-0.961215 J2.507336
G03 X21.677323 Y4.621054 Z-0.225000 I-1.710637 J1.705236
G03 X21.942778 Y5.217500 Z-0.225000 I-3.084611 J1.730135
G03 X22.207963 Y4.638522 Z-0.225000 I3.048264 J1.045954
G03 X22.604236 Y4.123889 Z-0.225000 I2.201904 J1.285607
G03 X23.554564 Y3.494533 Z-0.225000 I2.012099 J2.006097
G03 X24.720903 Y3.268417 Z-0.225000 I1.166338 J2.895004
G01 X26.564167 Y3.268417 Z-0.225000
G03 X27.743286 Y3.484551 Z-0.225000 I-0.000000 J3.324417
G03 X28.689653 Y4.097416 Z-0.225000 I-0.949784 J2.503730
G03 X29.314811 Y5.057779 Z-0.225000 I-1.976318 J1.970162
G03 X29.536320 Y6.240556 Z-0.225000 I-3.047162 J1.182799
G01 X29.536320 Y16.135972 Z-0.225000
G03 X29.498771 Y16.328767 Z-0.225000 I-0.500043 J0.002665
G03 X29.389865 Y16.492226 Z-0.225000 I-0.462494 J-0.190129
G03 X29.226406 Y16.601132 Z-0.225000 I-0.353589 J-0.353589
G03 X29.033611 Y16.638681 Z-0.225000 I-0.190129 J-0.462494
G01 X25.964445 Y16.638681 Z-0.225000
G03 X25.800396 Y16.607491 Z-0.225000 I0.010062 J-0.499949
G03 X25.655764 Y16.524028 Z-0.225000 I0.174111 J-0.468760
G03 X25.511132 Y16.607491 Z-0.225000 I-0.318743 J-0.385296
G03 X25.347083 Y16.638681 Z-0.225000 I-0.174111 J-0.468760
G01 X22.260278 Y16.638681 Z-0.225000
G03 X22.091561 Y16.608956 Z-0.225000 I0.001122 J-0.500049
G03 X21.942778 Y16.524028 Z-0.225000 I0.169839 J-0.470324
G03 X21.798146 Y16.607491 Z-0.225000 I-0.318743 J-0.385296
G03 X21.634097 Y16.638681 Z-0.225000 I-0.174111 J-0.468760
G01 X18.564931 Y16.638681 Z-0.225000
G03 X18.372136 Y16.601132 Z-0.225000 I-0.002665 J-0.500043
G03 X18.208676 Y16.492226 Z-0.225000 I0.190129 J-0.462494
G03 X18.099771 Y16.328767 Z-0.225000 I0.353589 J-0.353589
G03 X18.062222 Y16.135972 Z-0.225000 I0.462494 J-0.190129
G01 X18.062222 Y13.869361 Z-0.225000
G01 X17.321389 Y13.869361 Z-0.225000
G03 X16.157792 Y13.639279 Z-0.225000 I0.000000 J-3.057383
G03 X15.204722 Y12.996250 Z-0.225000 I1.084606 J-2.635369
G01 X15.204983 Y12.990998 Z-0.225000
G01 X15.204722 Y12.987501 Z-0.225000
G03 X14.937579 Y12.645323 Z-0.225000 I1.303609 J-1.293117
G03 X14.728472 Y12.273140 Z-0.225000 I5.619945 J-3.402333
G01 X14.728472 Y16.136057 Z-0.225000
G03 X14.690924 Y16.328851 Z-0.225000 I-0.500043 J0.002665
G03 X14.582018 Y16.492311 Z-0.225000 I-0.462494 J-0.190129
G03 X14.418558 Y16.601217 Z-0.225000 I-0.353589 J-0.353589
G03 X14.225764 Y16.638765 Z-0.225000 I-0.190129 J-0.462494
G01 X9.921875 Y16.638765 Z-0.225000
G03 X8.760413 Y16.418767 Z-0.225000 I0.000066 J-3.176259
G03 X7.805208 Y15.792099 Z-0.225000 I1.020018 J-2.596097
G03 X7.409060 Y15.270963 Z-0.225000 I1.735940 J-1.730734
G03 X7.143750 Y14.680835 Z-0.225000 I3.012339 J-1.708991
G03 X6.880043 Y15.269441 Z-0.225000 I-3.190338 J-1.075956
G03 X6.482292 Y15.792099 Z-0.225000 I-2.146528 J-1.220868
G03 X5.527075 Y16.418768 Z-0.225000 I-1.975275 J-1.969522
G03 X4.365625 Y16.638765 Z-0.225000 I-1.161516 J-2.956220
G01 X2.513542 Y16.638765 Z-0.225000
G01 X2.513542 Y16.638681 Z-0.225000
G00 Z2.900000

(End cutting path id: path14520)


(Start cutting path id: path14518)
(Change tool to Default tool)

G00 Z2.900000
G00 X2.513542 Y15.633264

G01 Z-0.225000 F300.0(Penetrate)
G03 X1.708558 Y15.482419 Z-0.225000 I0.000042 J-2.223542 F300.000000
G03 X1.102431 Y15.086458 Z-0.225000 I0.634055 J-1.632501
G03 X0.706724 Y14.477417 Z-0.225000 I1.246961 J-1.243244
G03 X0.555625 Y13.666528 Z-0.225000 I2.100306 J-0.810889
G01 X0.555625 Y4.273805 Z-0.225000
G01 X2.637014 Y4.273805 Z-0.225000
G01 X2.637014 Y6.549250 Z-0.225000
G02 X2.674567 Y6.742040 Z-0.225000 I0.500043 J0.002651
G02 X2.783473 Y6.905495 Z-0.225000 I0.462490 J-0.190139
G02 X2.946931 Y7.014397 Z-0.225000 I0.353584 J-0.353594
G02 X3.139722 Y7.051944 Z-0.225000 I0.190126 J-0.462496
G01 X3.757083 Y7.051944 Z-0.225000
G02 X3.949874 Y7.014397 Z-0.225000 I0.002665 J-0.500043
G02 X4.113333 Y6.905495 Z-0.225000 I-0.190126 J-0.462496
G02 X4.222239 Y6.742040 Z-0.225000 I-0.353584 J-0.353594
G02 X4.259792 Y6.549250 Z-0.225000 I-0.462490 J-0.190139
G01 X4.259792 Y2.527584 Z-0.225000
G03 X4.414892 Y1.701642 Z-0.225000 I2.276616 J-0.000018
G03 X4.797778 Y1.098805 Z-0.225000 I1.720730 J0.669895
G03 X5.401478 Y0.708637 Z-0.225000 I1.271231 J1.304822
G03 X6.226528 Y0.552028 Z-0.225000 I0.825049 J2.094962
G01 X10.036528 Y0.552028 Z-0.225000
G01 X10.036528 Y2.642222 Z-0.225000
G01 X6.826250 Y2.642222 Z-0.225000
G02 X6.633459 Y2.679769 Z-0.225000 I-0.002665 J0.500043
G02 X6.470001 Y2.788671 Z-0.225000 I0.190126 J0.462496
G02 X6.361094 Y2.952126 Z-0.225000 I0.353584 J0.353594
G02 X6.323542 Y3.144916 Z-0.225000 I0.462490 J0.190139
G01 X6.323542 Y13.666528 Z-0.225000
G03 X6.172436 Y14.477419 Z-0.225000 I-2.251516 J-0.000036
G03 X5.776736 Y15.086458 Z-0.225000 I-1.642697 J-0.634213
G03 X5.170591 Y15.482423 Z-0.225000 I-1.240230 J-1.236624
G03 X4.365625 Y15.633264 Z-0.225000 I-0.805008 J-2.072665
G01 X2.513542 Y15.633264 Z-0.225000
G01 X2.513542 Y15.633264 Z-0.225000
G00 Z2.900000

(End cutting path id: path14518)


(Start cutting path id: path14518)
(Change tool to Default tool)

G00 Z2.900000
G00 X3.104444 Y13.543056

G01 Z-0.225000 F300.0(Penetrate)
G02 X3.122083 Y13.543367 Z-0.225000 I0.017639 J-0.499739 F300.000000
G02 X3.139722 Y13.543056 Z-0.225000 I-0.000000 J-0.500050
G01 X3.757083 Y13.543056 Z-0.225000
G02 X3.949874 Y13.505508 Z-0.225000 I0.002665 J-0.500043
G02 X4.113333 Y13.396606 Z-0.225000 I-0.190126 J-0.462496
G02 X4.222239 Y13.233151 Z-0.225000 I-0.353584 J-0.353594
G02 X4.259792 Y13.040361 Z-0.225000 I-0.462490 J-0.190139
G01 X4.259792 Y9.644861 Z-0.225000
G02 X4.222247 Y9.452062 Z-0.225000 I-0.500043 J-0.002680
G02 X4.113343 Y9.288598 Z-0.225000 I-0.462498 J0.190119
G02 X3.949881 Y9.179689 Z-0.225000 I-0.353594 J0.353584
G02 X3.757083 Y9.142139 Z-0.225000 I-0.190132 J0.462493
G01 X3.139722 Y9.142139 Z-0.225000
G02 X2.946925 Y9.179689 Z-0.225000 I-0.002666 J0.500043
G02 X2.783463 Y9.288598 Z-0.225000 I0.190132 J0.462493
G02 X2.674558 Y9.452062 Z-0.225000 I0.353594 J0.353584
G02 X2.637014 Y9.644861 Z-0.225000 I0.462498 J0.190119
G01 X2.637014 Y13.040361 Z-0.225000
G02 X2.770850 Y13.384581 Z-0.225000 I0.500036 J0.003708
G02 X3.104444 Y13.543056 Z-0.225000 I0.366200 J-0.340511
G01 X3.104444 Y13.543056 Z-0.225000
G00 Z2.900000

(End cutting path id: path14518)


(Start cutting path id: path17065)
(Change tool to Default tool)

G00 Z2.900000
G00 X3.095625 Y13.287306

G01 Z-0.225000 F300.0(Penetrate)
G02 X3.117674 Y13.288280 Z-0.225000 I0.022049 J-0.249051 F300.000000
G02 X3.139722 Y13.287306 Z-0.225000 I-0.000000 J-0.250025
G01 X3.757083 Y13.287306 Z-0.225000
G02 X3.930816 Y13.214094 Z-0.225000 I-0.003062 J-0.250006
G02 X4.004028 Y13.040361 Z-0.225000 I-0.176794 J-0.176794
G01 X4.004028 Y9.644861 Z-0.225000
G02 X3.930816 Y9.471129 Z-0.225000 I-0.250006 J0.003062
G02 X3.757083 Y9.397917 Z-0.225000 I-0.176794 J0.176794
G01 X3.139722 Y9.397917 Z-0.225000
G02 X2.965990 Y9.471129 Z-0.225000 I0.003062 J0.250006
G02 X2.892778 Y9.644861 Z-0.225000 I0.176794 J0.176794
G01 X2.892778 Y13.040361 Z-0.225000
G02 X2.949598 Y13.200472 Z-0.225000 I0.250021 J0.001410
G02 X3.095625 Y13.287306 Z-0.225000 I0.193201 J-0.158701
G01 X3.095625 Y13.287306 Z-0.225000
G00 Z2.900000

(End cutting path id: path17065)


(Start cutting path id: path17063)
(Change tool to Default tool)

G00 Z2.900000
G00 X3.139722 Y13.040361

G01 Z-0.225000 F300.0(Penetrate)
G01 X3.757083 Y13.040361 Z-0.225000 F300.000000
G01 X3.757083 Y9.644861 Z-0.225000
G01 X3.139722 Y9.644861 Z-0.225000
G01 X3.139722 Y13.040361 Z-0.225000
G01 X3.139722 Y13.040361 Z-0.225000
G00 Z2.900000

(End cutting path id: path17063)


(Start cutting path id: path13701)
(Change tool to Default tool)

G00 Z2.900000
G00 X3.139722 Y13.040361

G01 Z-0.225000 F300.0(Penetrate)
G01 X3.757083 Y13.040361 Z-0.225000 F300.000000
G01 X3.757083 Y9.644861 Z-0.225000
G01 X3.139722 Y9.644861 Z-0.225000
G01 X3.139722 Y13.040361 Z-0.225000
G01 X3.139722 Y13.040361 Z-0.225000
G00 Z2.900000

(End cutting path id: path13701)


(Start cutting path id: path14518)
(Change tool to Default tool)

G00 Z2.900000
G00 X9.921875 Y15.633264

G01 Z-0.225000 F300.0(Penetrate)
G03 X9.116892 Y15.482419 Z-0.225000 I0.000042 J-2.223542 F300.000000
G03 X8.510764 Y15.086458 Z-0.225000 I0.634055 J-1.632501
G03 X8.108751 Y14.473062 Z-0.225000 I1.283433 J-1.279582
G03 X7.955139 Y13.666528 Z-0.225000 I2.040527 J-0.806534
G01 X7.955139 Y4.273805 Z-0.225000
G01 X10.036528 Y4.273805 Z-0.225000
G01 X10.036528 Y13.040361 Z-0.225000
G02 X10.074080 Y13.233151 Z-0.225000 I0.500043 J0.002651
G02 X10.182987 Y13.396606 Z-0.225000 I0.462490 J-0.190139
G02 X10.346445 Y13.505508 Z-0.225000 I0.353584 J-0.353594
G02 X10.539236 Y13.543056 Z-0.225000 I0.190126 J-0.462496
G01 X11.165417 Y13.543056 Z-0.225000
G02 X11.358208 Y13.505508 Z-0.225000 I0.002665 J-0.500043
G02 X11.521666 Y13.396606 Z-0.225000 I-0.190126 J-0.462496
G02 X11.630572 Y13.233151 Z-0.225000 I-0.353584 J-0.353594
G02 X11.668125 Y13.040361 Z-0.225000 I-0.462490 J-0.190139
G01 X11.668125 Y10.773750 Z-0.225000
G01 X13.723056 Y10.773750 Z-0.225000
G01 X13.723056 Y15.633264 Z-0.225000
G01 X9.921875 Y15.633264 Z-0.225000
G01 X9.921875 Y15.633264 Z-0.225000
G00 Z2.900000

(End cutting path id: path14518)


(Start cutting path id: path17065)
(Change tool to Default tool)

G00 Z2.900000
G00 X9.921875 Y15.889028

G01 Z-0.225000 F300.0(Penetrate)
G03 X9.027235 Y15.718523 Z-0.225000 I0.000052 J-2.432612 F300.000000
G03 X8.334375 Y15.262847 Z-0.225000 I0.748711 J-1.893014
G03 X7.873537 Y14.564753 Z-0.225000 I1.487688 J-1.483233
G03 X7.699375 Y13.666528 Z-0.225000 I2.229178 J-0.898225
G01 X7.699375 Y4.018056 Z-0.225000
G01 X10.292292 Y4.018056 Z-0.225000
G01 X10.292292 Y13.040361 Z-0.225000
G02 X10.365504 Y13.214094 Z-0.225000 I0.250006 J-0.003062
G02 X10.539236 Y13.287306 Z-0.225000 I0.176794 J-0.176794
G01 X11.165417 Y13.287306 Z-0.225000
G02 X11.339149 Y13.214094 Z-0.225000 I-0.003062 J-0.250006
G02 X11.412361 Y13.040361 Z-0.225000 I-0.176794 J-0.176794
G01 X11.412361 Y10.517972 Z-0.225000
G01 X13.978820 Y10.517972 Z-0.225000
G01 X13.978820 Y15.889028 Z-0.225000
G01 X9.921875 Y15.889028 Z-0.225000
G01 X9.921875 Y15.889028 Z-0.225000
G00 Z2.900000

(End cutting path id: path17065)


(Start cutting path id: path17063)
(Change tool to Default tool)

G00 Z2.900000
G00 X9.921875 Y16.135972

G01 Z-0.225000 F300.0(Penetrate)
G03 X8.938072 Y15.950290 Z-0.225000 I0.000054 J-2.699368 F300.000000
G03 X8.157986 Y15.439236 Z-0.225000 I0.827318 J-2.113740
G03 X7.642712 Y14.656055 Z-0.225000 I1.654756 J-1.649801
G03 X7.452431 Y13.666528 Z-0.225000 I2.477793 J-0.989527
G01 X7.452431 Y3.771111 Z-0.225000
G01 X10.539236 Y3.771111 Z-0.225000
G01 X10.539236 Y13.040361 Z-0.225000
G01 X11.165417 Y13.040361 Z-0.225000
G01 X11.165417 Y10.271028 Z-0.225000
G01 X14.225764 Y10.271028 Z-0.225000
G01 X14.225764 Y16.135972 Z-0.225000
G01 X9.921875 Y16.135972 Z-0.225000
G01 X9.921875 Y16.135972 Z-0.225000
G00 Z2.900000

(End cutting path id: path17063)


(Start cutting path id: path13701)
(Change tool to Default tool)

G00 Z2.900000
G00 X9.921875 Y16.135972

G01 Z-0.225000 F300.0(Penetrate)
G03 X8.938072 Y15.950290 Z-0.225000 I0.000054 J-2.699368 F300.000000
G03 X8.157986 Y15.439236 Z-0.225000 I0.827318 J-2.113740
G03 X7.642712 Y14.656055 Z-0.225000 I1.654756 J-1.649801
G03 X7.452431 Y13.666528 Z-0.225000 I2.477793 J-0.989527
G01 X7.452431 Y3.771111 Z-0.225000
G01 X10.539236 Y3.771111 Z-0.225000
G01 X10.539236 Y13.040361 Z-0.225000
G01 X11.165417 Y13.040361 Z-0.225000
G01 X11.165417 Y10.271028 Z-0.225000
G01 X14.225764 Y10.271028 Z-0.225000
G01 X14.225764 Y16.135972 Z-0.225000
G01 X9.921875 Y16.135972 Z-0.225000
G01 X9.921875 Y16.135972 Z-0.225000
G00 Z2.900000

(End cutting path id: path13701)


(Start cutting path id: path17063)
(Change tool to Default tool)

G00 Z2.900000
G00 X18.564931 Y16.135972

G01 Z-0.225000 F300.0(Penetrate)
G01 X18.564931 Y13.366667 Z-0.225000 F300.000000
G01 X17.321389 Y13.366667 Z-0.225000
G03 X16.340897 Y13.173588 Z-0.225000 I-0.000000 J-2.586111
G03 X15.557500 Y12.643472 Z-0.225000 I0.876454 J-2.139112
G03 X15.042237 Y11.860314 Z-0.225000 I1.654742 J-1.649786
G03 X14.851945 Y10.870750 Z-0.225000 I2.477833 J-0.989564
G01 X14.851945 Y3.771111 Z-0.225000
G01 X19.164653 Y3.771111 Z-0.225000
G03 X20.169031 Y3.956742 Z-0.225000 I0.000000 J2.809967
G03 X20.928542 Y4.450194 Z-0.225000 I-0.774168 J2.022819
G03 X21.441879 Y5.232981 Z-0.225000 I-1.640711 J1.635660
G03 X21.634097 Y6.240556 Z-0.225000 I-2.544876 J1.007617
G01 X21.634097 Y16.135972 Z-0.225000
G01 X18.564931 Y16.135972 Z-0.225000
G01 X18.564931 Y16.135972 Z-0.225000
G00 Z2.900000

(End cutting path id: path17063)


(Start cutting path id: path13701)
(Change tool to Default tool)

G00 Z2.900000
G00 X18.564931 Y16.135972

G01 Z-0.225000 F300.0(Penetrate)
G01 X18.564931 Y13.366667 Z-0.225000 F300.000000
G01 X17.321389 Y13.366667 Z-0.225000
G03 X16.340897 Y13.173588 Z-0.225000 I-0.000000 J-2.586111
G03 X15.557500 Y12.643472 Z-0.225000 I0.876454 J-2.139112
G03 X15.042230 Y11.860297 Z-0.225000 I1.654744 J-1.649788
G03 X14.851945 Y10.870750 Z-0.225000 I2.477843 J-0.989547
G01 X14.851945 Y3.771111 Z-0.225000
G01 X19.164653 Y3.771111 Z-0.225000
G03 X20.169023 Y3.956731 Z-0.225000 I0.000000 J2.810086
G03 X20.928542 Y4.450194 Z-0.225000 I-0.774049 J2.022625
G03 X21.441879 Y5.232962 Z-0.225000 I-1.640485 J1.635533
G03 X21.634097 Y6.240556 Z-0.225000 I-2.544979 J1.007636
G01 X21.634097 Y16.135972 Z-0.225000
G01 X18.564931 Y16.135972 Z-0.225000
G01 X18.564931 Y16.135972 Z-0.225000
G00 Z2.900000

(End cutting path id: path13701)


(Start cutting path id: path17065)
(Change tool to Default tool)

G00 Z2.900000
G00 X18.811875 Y15.889028

G01 Z-0.225000 F300.0(Penetrate)
G01 X18.811875 Y13.366667 Z-0.225000 F300.000000
G02 X18.738663 Y13.192934 Z-0.225000 I-0.250006 J0.003062
G02 X18.564931 Y13.119722 Z-0.225000 I-0.176794 J0.176794
G01 X17.321389 Y13.119722 Z-0.225000
G03 X16.432879 Y12.942534 Z-0.225000 I-0.000000 J-2.316314
G03 X15.733889 Y12.467083 Z-0.225000 I0.801744 J-1.930233
G03 X15.273067 Y11.769024 Z-0.225000 I1.487669 J-1.483216
G03 X15.098889 Y10.870750 Z-0.225000 I2.229211 J-0.898274
G01 X15.098889 Y4.018056 Z-0.225000
G01 X19.164653 Y4.018056 Z-0.225000
G03 X20.082483 Y4.189598 Z-0.225000 I-0.000000 J2.541170
G03 X20.752153 Y4.626583 Z-0.225000 I-0.697251 J1.800143
G03 X21.210642 Y5.323311 Z-0.225000 I-1.473441 J1.468834
G03 X21.387153 Y6.240556 Z-0.225000 I-2.295187 J0.917283
G01 X21.387153 Y15.889028 Z-0.225000
G01 X18.811875 Y15.889028 Z-0.225000
G01 X18.811875 Y15.889028 Z-0.225000
G00 Z2.900000

(End cutting path id: path17065)


(Start cutting path id: path14518)
(Change tool to Default tool)

G00 Z2.900000
G00 X19.067639 Y15.633264

G01 Z-0.225000 F300.0(Penetrate)
G01 X19.067639 Y13.366667 Z-0.225000 F300.000000
G02 X19.030086 Y13.173877 Z-0.225000 I-0.500043 J-0.002651
G02 X18.921180 Y13.010422 Z-0.225000 I-0.462490 J0.190139
G02 X18.757722 Y12.901520 Z-0.225000 I-0.353584 J0.353594
G02 X18.564931 Y12.863973 Z-0.225000 I-0.190126 J0.462496
G01 X17.321389 Y12.863973 Z-0.225000
G03 X16.530275 Y12.710543 Z-0.225000 I0.000000 J-2.116296
G03 X15.919097 Y12.299528 Z-0.225000 I0.663801 J-1.646983
G02 X15.914715 Y12.295126 Z-0.225000 I-0.356548 J0.350604
G02 X15.910278 Y12.290779 Z-0.225000 I-0.352166 J0.355006
G03 X15.508278 Y11.677412 Z-0.225000 I1.283393 J-1.279552
G03 X15.354653 Y10.870835 Z-0.225000 I2.040573 J-0.806578
G01 X15.354653 Y4.273890 Z-0.225000
G01 X19.164653 Y4.273890 Z-0.225000
G03 X19.995262 Y4.426646 Z-0.225000 I0.000000 J2.334592
G03 X20.575764 Y4.803057 Z-0.225000 I-0.586243 J1.539939
G03 X20.975108 Y5.414182 Z-0.225000 I-1.269660 J1.265709
G03 X21.131389 Y6.240640 Z-0.225000 I-2.107326 J0.826494
G01 X21.131389 Y15.633349 Z-0.225000
G01 X19.067639 Y15.633349 Z-0.225000
G01 X19.067639 Y15.633264 Z-0.225000
G00 Z2.900000

(End cutting path id: path14518)


(Start cutting path id: path17063)
(Change tool to Default tool)

G00 Z2.900000
G00 X22.260278 Y16.135972

G01 Z-0.225000 F300.0(Penetrate)
G01 X22.260278 Y6.240556 Z-0.225000 F300.000000
G03 X22.447052 Y5.255994 Z-0.225000 I2.688405 J0.000000
G03 X22.957014 Y4.476667 Z-0.225000 I2.133916 J0.839841
G03 X23.736985 Y3.961034 Z-0.225000 I1.643983 J1.639040
G03 X24.720903 Y3.771111 Z-0.225000 I0.983917 J2.453694
G01 X26.564167 Y3.771111 Z-0.225000
G03 X27.573522 Y3.955987 Z-0.225000 I0.000000 J2.847792
G03 X28.336875 Y4.450194 Z-0.225000 I-0.765012 J2.018281
G03 X28.845705 Y5.233102 Z-0.225000 I-1.604633 J1.599693
G03 X29.033611 Y6.240556 Z-0.225000 I-2.606883 J1.007475
G01 X29.033611 Y16.135972 Z-0.225000
G01 X25.964445 Y16.135972 Z-0.225000
G01 X25.964445 Y6.849083 Z-0.225000
G01 X25.347083 Y6.849083 Z-0.225000
G01 X25.347083 Y16.135972 Z-0.225000
G01 X22.260278 Y16.135972 Z-0.225000
G01 X22.260278 Y16.135972 Z-0.225000
G00 Z2.900000

(End cutting path id: path17063)


(Start cutting path id: path13701)
(Change tool to Default tool)

G00 Z2.900000
G00 X22.260278 Y16.135972

G01 Z-0.225000 F300.0(Penetrate)
G01 X22.260278 Y6.240556 Z-0.225000 F300.000000
G03 X22.447052 Y5.255994 Z-0.225000 I2.688405 J0.000000
G03 X22.957014 Y4.476667 Z-0.225000 I2.133916 J0.839841
G03 X23.736985 Y3.961034 Z-0.225000 I1.643983 J1.639040
G03 X24.720903 Y3.771111 Z-0.225000 I0.983917 J2.453694
G01 X26.564167 Y3.771111 Z-0.225000
G03 X27.573514 Y3.955976 Z-0.225000 I-0.000000 J2.847914
G03 X28.336875 Y4.450194 Z-0.225000 I-0.764895 J2.018089
G03 X28.845706 Y5.233084 Z-0.225000 I-1.604415 J1.599572
G03 X29.033611 Y6.240556 Z-0.225000 I-2.606989 J1.007494
G01 X29.033611 Y16.135972 Z-0.225000
G01 X25.964445 Y16.135972 Z-0.225000
G01 X25.964445 Y6.849083 Z-0.225000
G01 X25.347083 Y6.849083 Z-0.225000
G01 X25.347083 Y16.135972 Z-0.225000
G01 X22.260278 Y16.135972 Z-0.225000
G01 X22.260278 Y16.135972 Z-0.225000
G00 Z2.900000

(End cutting path id: path13701)


(Start cutting path id: path17065)
(Change tool to Default tool)

G00 Z2.900000
G00 X22.507222 Y15.889028

G01 Z-0.225000 F300.0(Penetrate)
G01 X22.507222 Y6.240556 Z-0.225000 F300.000000
G03 X22.678354 Y5.346103 Z-0.225000 I2.423088 J-0.000000
G03 X23.133403 Y4.653056 Z-0.225000 I1.911753 J0.759328
G03 X23.828415 Y4.191899 Z-0.225000 I1.478758 J1.474337
G03 X24.720903 Y4.018056 Z-0.225000 I0.892488 J2.204038
G01 X26.564167 Y4.018056 Z-0.225000
G03 X27.488145 Y4.189299 Z-0.225000 I-0.000000 J2.578382
G03 X28.160486 Y4.626583 Z-0.225000 I-0.688910 J1.794743
G03 X28.613581 Y5.321169 Z-0.225000 I-1.436711 J1.432274
G03 X28.786667 Y6.240556 Z-0.225000 I-2.355333 J0.919408
G01 X28.786667 Y15.889028 Z-0.225000
G01 X26.211389 Y15.889028 Z-0.225000
G01 X26.211389 Y6.849083 Z-0.225000
G02 X26.138177 Y6.675351 Z-0.225000 I-0.250006 J0.003062
G02 X25.964445 Y6.602139 Z-0.225000 I-0.176794 J0.176794
G01 X25.347083 Y6.602139 Z-0.225000
G02 X25.173351 Y6.675351 Z-0.225000 I0.003062 J0.250006
G02 X25.100139 Y6.849083 Z-0.225000 I0.176794 J0.176794
G01 X25.100139 Y15.889028 Z-0.225000
G01 X22.507222 Y15.889028 Z-0.225000
G01 X22.507222 Y15.889028 Z-0.225000
G00 Z2.900000

(End cutting path id: path17065)


(Start cutting path id: path14518)
(Change tool to Default tool)

G00 Z2.900000
G00 X22.762986 Y15.633264

G01 Z-0.225000 F300.0(Penetrate)
G01 X22.762986 Y6.240556 Z-0.225000 F300.000000
G03 X22.914000 Y5.436654 Z-0.225000 I2.215233 J-0.000000
G03 X23.309792 Y4.829444 Z-0.225000 I1.648779 J0.642111
G03 X23.920247 Y4.427145 Z-0.225000 I1.276391 J1.272508
G03 X24.720903 Y4.273805 Z-0.225000 I0.800656 J2.013624
G01 X26.564167 Y4.273805 Z-0.225000
G03 X27.402121 Y4.426731 Z-0.225000 I-0.000000 J2.372240
G03 X27.984097 Y4.802972 Z-0.225000 I-0.579325 J1.534337
G03 X28.377220 Y5.409807 Z-0.225000 I-1.233984 J1.230159
G03 X28.530903 Y6.240556 Z-0.225000 I-2.168616 J0.830769
G01 X28.530903 Y15.633264 Z-0.225000
G01 X26.467153 Y15.633264 Z-0.225000
G01 X26.467153 Y6.849083 Z-0.225000
G02 X26.429600 Y6.656293 Z-0.225000 I-0.500043 J-0.002651
G02 X26.320694 Y6.492838 Z-0.225000 I-0.462490 J0.190139
G02 X26.157236 Y6.383936 Z-0.225000 I-0.353584 J0.353594
G02 X25.964445 Y6.346389 Z-0.225000 I-0.190126 J0.462496
G01 X25.347083 Y6.346389 Z-0.225000
G02 X25.154292 Y6.383936 Z-0.225000 I-0.002665 J0.500043
G02 X24.990834 Y6.492838 Z-0.225000 I0.190126 J0.462496
G02 X24.881928 Y6.656293 Z-0.225000 I0.353584 J0.353594
G02 X24.844375 Y6.849083 Z-0.225000 I0.462490 J0.190139
G01 X24.844375 Y15.633264 Z-0.225000
G01 X22.762986 Y15.633264 Z-0.225000
G01 X22.762986 Y15.633264 Z-0.225000
G00 Z2.900000

(End cutting path id: path14518)


(Start cutting path id: path14518)
(Change tool to Default tool)

G00 Z2.900000
G00 X17.903472 Y10.773750

G01 Z-0.225000 F300.0(Penetrate)
G02 X17.921111 Y10.774061 Z-0.225000 I0.017639 J-0.499739 F300.000000
G02 X17.938750 Y10.773750 Z-0.225000 I0.000000 J-0.500050
G01 X18.564931 Y10.773750 Z-0.225000
G02 X18.757728 Y10.736200 Z-0.225000 I0.002666 J-0.500043
G02 X18.921190 Y10.627291 Z-0.225000 I-0.190132 J-0.462493
G02 X19.030095 Y10.463826 Z-0.225000 I-0.353594 J-0.353584
G02 X19.067639 Y10.271028 Z-0.225000 I-0.462498 J-0.190119
G01 X19.067639 Y6.849083 Z-0.225000
G02 X19.030086 Y6.656293 Z-0.225000 I-0.500043 J-0.002651
G02 X18.921180 Y6.492838 Z-0.225000 I-0.462490 J0.190139
G02 X18.757722 Y6.383936 Z-0.225000 I-0.353584 J0.353594
G02 X18.564931 Y6.346389 Z-0.225000 I-0.190126 J0.462496
G01 X17.938750 Y6.346389 Z-0.225000
G02 X17.745959 Y6.383936 Z-0.225000 I-0.002665 J0.500043
G02 X17.582501 Y6.492838 Z-0.225000 I0.190126 J0.462496
G02 X17.473594 Y6.656293 Z-0.225000 I0.353584 J0.353594
G02 X17.436042 Y6.849083 Z-0.225000 I0.462490 J0.190139
G01 X17.436042 Y10.271028 Z-0.225000
G02 X17.569869 Y10.615265 Z-0.225000 I0.500036 J0.003737
G02 X17.903472 Y10.773750 Z-0.225000 I0.366209 J-0.340501
G01 X17.903472 Y10.773750 Z-0.225000
G00 Z2.900000

(End cutting path id: path14518)


(Start cutting path id: path17065)
(Change tool to Default tool)

G00 Z2.900000
G00 X17.894653 Y10.517972

G01 Z-0.225000 F300.0(Penetrate)
G02 X17.916701 Y10.518946 Z-0.225000 I0.022049 J-0.249051 F300.000000
G02 X17.938750 Y10.517972 Z-0.225000 I-0.000000 J-0.250025
G01 X18.564931 Y10.517972 Z-0.225000
G02 X18.738663 Y10.444760 Z-0.225000 I-0.003062 J-0.250006
G02 X18.811875 Y10.271028 Z-0.225000 I-0.176794 J-0.176794
G01 X18.811875 Y6.849083 Z-0.225000
G02 X18.738663 Y6.675351 Z-0.225000 I-0.250006 J0.003062
G02 X18.564931 Y6.602139 Z-0.225000 I-0.176794 J0.176794
G01 X17.938750 Y6.602139 Z-0.225000
G02 X17.765018 Y6.675351 Z-0.225000 I0.003062 J0.250006
G02 X17.691806 Y6.849083 Z-0.225000 I0.176794 J0.176794
G01 X17.691806 Y10.271028 Z-0.225000
G02 X17.748626 Y10.431138 Z-0.225000 I0.250021 J0.001410
G02 X17.894653 Y10.517972 Z-0.225000 I0.193201 J-0.158701
G01 X17.894653 Y10.517972 Z-0.225000
G00 Z2.900000

(End cutting path id: path17065)


(Start cutting path id: path17063)
(Change tool to Default tool)

G00 Z2.900000
G00 X17.938750 Y10.271028

G01 Z-0.225000 F300.0(Penetrate)
G01 X18.564931 Y10.271028 Z-0.225000 F300.000000
G01 X18.564931 Y6.849083 Z-0.225000
G01 X17.938750 Y6.849083 Z-0.225000
G01 X17.938750 Y10.271028 Z-0.225000
G01 X17.938750 Y10.271028 Z-0.225000
G00 Z2.900000

(End cutting path id: path17063)


(Start cutting path id: path13701)
(Change tool to Default tool)

G00 Z2.900000
G00 X17.938750 Y10.271028

G01 Z-0.225000 F300.0(Penetrate)
G01 X18.564931 Y10.271028 Z-0.225000 F300.000000
G01 X18.564931 Y6.849083 Z-0.225000
G01 X17.938750 Y6.849083 Z-0.225000
G01 X17.938750 Y10.271028 Z-0.225000
G01 X17.938750 Y10.271028 Z-0.225000
G00 Z2.900000

(End cutting path id: path13701)


(Start cutting path id: path14524)
(Change tool to Default tool)

G00 Z2.900000
G00 X32.129236 Y19.531458

G01 Z-0.225000 F300.0(Penetrate)
G03 X31.178862 Y19.332856 Z-0.225000 I0.000057 J-2.373487 F300.000000
G03 X30.488820 Y18.825903 Z-0.225000 I0.779917 J-1.784694
G03 X30.062142 Y18.137654 Z-0.225000 I1.633674 J-1.489174
G03 X29.906736 Y17.308958 Z-0.225000 I2.131791 J-0.828696
G01 X29.906736 Y3.938695 Z-0.225000
G01 X32.499653 Y3.938695 Z-0.225000
G01 X32.499653 Y12.978611 Z-0.225000
G02 X32.572865 Y13.152344 Z-0.225000 I0.250006 J-0.003062
G02 X32.746597 Y13.225556 Z-0.225000 I0.176794 J-0.176794
G01 X35.268959 Y13.225556 Z-0.225000
G01 X35.268959 Y15.836111 Z-0.225000
G01 X32.746597 Y15.836111 Z-0.225000
G02 X32.572865 Y15.909323 Z-0.225000 I0.003062 J0.250006
G02 X32.499653 Y16.083056 Z-0.225000 I0.176794 J0.176794
G01 X32.499653 Y16.700417 Z-0.225000
G02 X32.572865 Y16.874149 Z-0.225000 I0.250006 J-0.003062
G02 X32.746597 Y16.947361 Z-0.225000 I0.176794 J-0.176794
G01 X38.055903 Y16.947361 Z-0.225000
G01 X38.055903 Y19.531458 Z-0.225000
G01 X32.129236 Y19.531458 Z-0.225000
G01 X32.129236 Y19.531458 Z-0.225000
G00 Z2.900000

(End cutting path id: path14524)


(Start cutting path id: path13709)
(Change tool to Default tool)

G00 Z2.900000
G00 X32.129236 Y19.778403

G01 Z-0.225000 F300.0(Penetrate)
G03 X31.083766 Y19.563120 Z-0.225000 I0.000059 J-2.646463 F300.000000
G03 X30.303611 Y18.993472 Z-0.225000 I0.856953 J-1.992680
G03 X29.830057 Y18.226396 Z-0.225000 I1.800539 J-1.641274
G03 X29.659792 Y17.308958 Z-0.225000 I2.386575 J-0.917437
G01 X29.659792 Y3.691750 Z-0.225000
G01 X32.746597 Y3.691750 Z-0.225000
G01 X32.746597 Y12.978611 Z-0.225000
G01 X35.515903 Y12.978611 Z-0.225000
G01 X35.515903 Y16.083056 Z-0.225000
G01 X32.746597 Y16.083056 Z-0.225000
G01 X32.746597 Y16.700417 Z-0.225000
G01 X38.302847 Y16.700417 Z-0.225000
G01 X38.302847 Y19.778403 Z-0.225000
G01 X32.129236 Y19.778403 Z-0.225000
G01 X32.129236 Y19.778403 Z-0.225000
G00 Z2.900000

(End cutting path id: path13709)


(Start cutting path id: path14526)
(Change tool to Default tool)

G00 Z2.900000
G00 X32.129236 Y20.025347

G01 Z-0.225000 F300.0(Penetrate)
G03 X30.989020 Y19.793471 Z-0.225000 I0.000060 J-2.919657 F300.000000
G03 X30.118403 Y19.161042 Z-0.225000 I0.933670 J-2.200783
G03 X29.597955 Y18.315070 Z-0.225000 I1.967621 J-1.793573
G03 X29.412847 Y17.308958 Z-0.225000 I2.641698 J-1.006111
G01 X29.412847 Y3.691750 Z-0.225000
G03 X29.486059 Y3.518018 Z-0.225000 I0.250006 J0.003062
G03 X29.659792 Y3.444806 Z-0.225000 I0.176794 J0.176794
G01 X32.746597 Y3.444806 Z-0.225000
G03 X32.920330 Y3.518018 Z-0.225000 I-0.003062 J0.250006
G03 X32.993542 Y3.691750 Z-0.225000 I-0.176794 J0.176794
G01 X32.993542 Y12.731667 Z-0.225000
G01 X35.515903 Y12.731667 Z-0.225000
G03 X35.689636 Y12.804879 Z-0.225000 I-0.003062 J0.250006
G03 X35.762847 Y12.978611 Z-0.225000 I-0.176794 J0.176794
G01 X35.762847 Y16.083056 Z-0.225000
G03 X35.689636 Y16.256788 Z-0.225000 I-0.250006 J-0.003062
G03 X35.515903 Y16.330000 Z-0.225000 I-0.176794 J-0.176794
G01 X32.993542 Y16.330000 Z-0.225000
G01 X32.993542 Y16.453472 Z-0.225000
G01 X38.302847 Y16.453472 Z-0.225000
G03 X38.476580 Y16.526684 Z-0.225000 I-0.003062 J0.250006
G03 X38.549792 Y16.700417 Z-0.225000 I-0.176794 J0.176794
G01 X38.549792 Y19.778403 Z-0.225000
G03 X38.476580 Y19.952135 Z-0.225000 I-0.250006 J-0.003062
G03 X38.302847 Y20.025347 Z-0.225000 I-0.176794 J-0.176794
G01 X32.129236 Y20.025347 Z-0.225000
G01 X32.129236 Y20.025347 Z-0.225000
G00 Z2.900000

(End cutting path id: path14526)


(Start cutting path id: path14526)
(Change tool to Default tool)

G00 Z2.900000
G00 X38.629167 Y16.382917

G01 Z-0.225000 F300.0(Penetrate)
G03 X37.556486 Y16.182137 Z-0.225000 I0.000055 J-2.966129 F300.000000
G03 X36.688889 Y15.615625 Z-0.225000 I0.905606 J-2.334514
G03 X36.119117 Y14.747153 Z-0.225000 I1.821762 J-1.816329
G03 X35.912778 Y13.666528 Z-0.225000 I2.726521 J-1.080625
G01 X35.912778 Y6.240556 Z-0.225000
G03 X36.120304 Y5.163700 Z-0.225000 I2.897677 J0.000000
G03 X36.688889 Y4.300278 Z-0.225000 I2.396799 J0.959428
G03 X37.554025 Y3.730109 Z-0.225000 I1.809218 J1.803751
G03 X38.629167 Y3.524167 Z-0.225000 I1.075142 J2.703473
G01 X40.472431 Y3.524167 Z-0.225000
G03 X41.562952 Y3.723789 Z-0.225000 I0.000000 J3.078527
G03 X42.412709 Y4.273805 Z-0.225000 I-0.850646 J2.245651
G03 X42.980968 Y5.142926 Z-0.225000 I-1.808169 J1.802574
G03 X43.188820 Y6.240556 Z-0.225000 I-2.794506 J1.097673
G01 X43.188820 Y13.666528 Z-0.225000
G03 X42.980556 Y14.762080 Z-0.225000 I-2.985891 J-0.000043
G03 X42.412709 Y15.615625 Z-0.225000 I-2.273107 J-0.896595
G03 X41.560008 Y16.180263 Z-0.225000 I-1.710167 J-1.656466
G03 X40.472431 Y16.382917 Z-0.225000 I-1.087632 J-2.817305
G01 X38.629167 Y16.382917 Z-0.225000
G01 X38.629167 Y16.382917 Z-0.225000
G00 Z2.900000

(End cutting path id: path14526)


(Start cutting path id: path13709)
(Change tool to Default tool)

G00 Z2.900000
G00 X38.629167 Y16.135972

G01 Z-0.225000 F300.0(Penetrate)
G03 X37.645364 Y15.950290 Z-0.225000 I0.000054 J-2.699368 F300.000000
G03 X36.865278 Y15.439236 Z-0.225000 I0.827318 J-2.113740
G03 X36.350002 Y14.656053 Z-0.225000 I1.654711 J-1.649776
G03 X36.159722 Y13.666528 Z-0.225000 I2.477817 J-0.989525
G01 X36.159722 Y6.240556 Z-0.225000
G03 X36.350759 Y5.255872 Z-0.225000 I2.633265 J0.000000
G03 X36.865278 Y4.476667 Z-0.225000 I2.175905 J0.877305
G03 X37.645249 Y3.961034 Z-0.225000 I1.643983 J1.639040
G03 X38.629167 Y3.771111 Z-0.225000 I0.983917 J2.453694
G01 X40.472431 Y3.771111 Z-0.225000
G03 X41.476803 Y3.956732 Z-0.225000 I0.000000 J2.810085
G03 X42.236320 Y4.450194 Z-0.225000 I-0.774050 J2.022624
G03 X42.749657 Y5.232962 Z-0.225000 I-1.640485 J1.635533
G03 X42.941875 Y6.240556 Z-0.225000 I-2.544979 J1.007636
G01 X42.941875 Y13.666528 Z-0.225000
G03 X42.748291 Y14.673211 Z-0.225000 I-2.714508 J-0.000042
G03 X42.236320 Y15.439236 Z-0.225000 I-2.059849 J-0.822597
G03 X41.473267 Y15.947070 Z-0.225000 I-1.549126 J-1.500476
G03 X40.472431 Y16.135972 Z-0.225000 I-1.000890 J-2.557136
G01 X38.629167 Y16.135972 Z-0.225000
G01 X38.629167 Y16.135972 Z-0.225000
G00 Z2.900000

(End cutting path id: path13709)


(Start cutting path id: path14524)
(Change tool to Default tool)

G00 Z2.900000
G00 X38.629167 Y15.889028

G01 Z-0.225000 F300.0(Penetrate)
G03 X37.734526 Y15.718522 Z-0.225000 I0.000052 J-2.432613 F300.000000
G03 X37.041667 Y15.262847 Z-0.225000 I0.748711 J-1.893011
G03 X36.580827 Y14.564752 Z-0.225000 I1.487651 J-1.483213
G03 X36.406667 Y13.666528 Z-0.225000 I2.229196 J-0.898224
G01 X36.406667 Y6.240556 Z-0.225000
G03 X36.581153 Y5.348235 Z-0.225000 I2.368899 J-0.000000
G03 X37.041667 Y4.653056 Z-0.225000 I1.955082 J0.795001
G03 X37.736680 Y4.191898 Z-0.225000 I1.478759 J1.474339
G03 X38.629167 Y4.018056 Z-0.225000 I0.892487 J2.204037
G01 X40.472431 Y4.018056 Z-0.225000
G03 X41.390262 Y4.189599 Z-0.225000 I0.000000 J2.541165
G03 X42.059931 Y4.626583 Z-0.225000 I-0.697257 J1.800150
G03 X42.518420 Y5.323311 Z-0.225000 I-1.473436 J1.468830
G03 X42.694931 Y6.240556 Z-0.225000 I-2.295200 J0.917286
G01 X42.694931 Y13.666528 Z-0.225000
G03 X42.516087 Y14.584052 Z-0.225000 I-2.443231 J-0.000041
G03 X42.059931 Y15.262847 Z-0.225000 I-1.846628 J-0.748282
G03 X41.386150 Y15.713956 Z-0.225000 I-1.388018 J-1.344420
G03 X40.472431 Y15.889028 Z-0.225000 I-0.913771 J-2.297141
G01 X38.629167 Y15.889028 Z-0.225000
G01 X38.629167 Y15.889028 Z-0.225000
G00 Z2.900000

(End cutting path id: path14524)


(Start cutting path id: path14524)
(Change tool to Default tool)

G00 Z2.900000
G00 X39.202431 Y13.287306

G01 Z-0.225000 F300.0(Penetrate)
G02 X39.224479 Y13.288280 Z-0.225000 I0.022049 J-0.249051 F300.000000
G02 X39.246528 Y13.287306 Z-0.225000 I0.000000 J-0.250025
G01 X39.872709 Y13.287306 Z-0.225000
G02 X40.046441 Y13.214094 Z-0.225000 I-0.003062 J-0.250006
G02 X40.119653 Y13.040361 Z-0.225000 I-0.176794 J-0.176794
G01 X40.119653 Y6.849083 Z-0.225000
G02 X40.046441 Y6.675351 Z-0.225000 I-0.250006 J0.003062
G02 X39.872709 Y6.602139 Z-0.225000 I-0.176794 J0.176794
G01 X39.246528 Y6.602139 Z-0.225000
G02 X39.072795 Y6.675351 Z-0.225000 I0.003062 J0.250006
G02 X38.999584 Y6.849083 Z-0.225000 I0.176794 J0.176794
G01 X38.999584 Y13.040361 Z-0.225000
G02 X39.056404 Y13.200472 Z-0.225000 I0.250021 J0.001410
G02 X39.202431 Y13.287306 Z-0.225000 I0.193201 J-0.158701
G01 X39.202431 Y13.287306 Z-0.225000
G00 Z2.900000

(End cutting path id: path14524)


(Start cutting path id: path13709)
(Change tool to Default tool)

G00 Z2.900000
G00 X39.246528 Y13.040361

G01 Z-0.225000 F300.0(Penetrate)
G01 X39.872709 Y13.040361 Z-0.225000 F300.000000
G01 X39.872709 Y6.849083 Z-0.225000
G01 X39.246528 Y6.849083 Z-0.225000
G01 X39.246528 Y13.040361 Z-0.225000
G01 X39.246528 Y13.040361 Z-0.225000
G00 Z2.900000

(End cutting path id: path13709)


(Start cutting path id: path14526)
(Change tool to Default tool)

G00 Z2.900000
G00 X39.493472 Y12.793417

G01 Z-0.225000 F300.0(Penetrate)
G01 X39.625764 Y12.793417 Z-0.225000 F300.000000
G01 X39.625764 Y7.096028 Z-0.225000
G01 X39.493472 Y7.096028 Z-0.225000
G01 X39.493472 Y12.793417 Z-0.225000
G01 X39.493472 Y12.793417 Z-0.225000
G00 Z2.900000

(End cutting path id: path14526)


(Start cutting path id: path14524)
(Change tool to Default tool)

G00 Z2.900000
G00 X46.028681 Y15.889028

G01 Z-0.225000 F300.0(Penetrate)
G03 X45.134040 Y15.718522 Z-0.225000 I0.000052 J-2.432613 F300.000000
G03 X44.441181 Y15.262847 Z-0.225000 I0.748711 J-1.893011
G03 X43.980343 Y14.564754 Z-0.225000 I1.487697 J-1.483238
G03 X43.806181 Y13.666528 Z-0.225000 I2.229173 J-0.898226
G01 X43.806181 Y6.240556 Z-0.225000
G03 X43.980668 Y5.348234 Z-0.225000 I2.368889 J-0.000000
G03 X44.441181 Y4.653056 Z-0.225000 I1.955104 J0.795015
G03 X45.136194 Y4.191898 Z-0.225000 I1.478759 J1.474339
G03 X46.028681 Y4.018056 Z-0.225000 I0.892487 J2.204037
G01 X47.871945 Y4.018056 Z-0.225000
G03 X48.789776 Y4.189599 Z-0.225000 I0.000000 J2.541165
G03 X49.459445 Y4.626583 Z-0.225000 I-0.697257 J1.800150
G03 X49.917936 Y5.323311 Z-0.225000 I-1.473453 J1.468847
G03 X50.094445 Y6.240556 Z-0.225000 I-2.295121 J0.917265
G01 X50.094445 Y9.397917 Z-0.225000
G01 X47.519167 Y9.397917 Z-0.225000
G01 X47.519167 Y6.849083 Z-0.225000
G02 X47.445955 Y6.675351 Z-0.225000 I-0.250006 J0.003062
G02 X47.272222 Y6.602139 Z-0.225000 I-0.176794 J0.176794
G01 X46.654861 Y6.602139 Z-0.225000
G02 X46.481129 Y6.675351 Z-0.225000 I0.003062 J0.250006
G02 X46.407917 Y6.849083 Z-0.225000 I0.176794 J0.176794
G01 X46.407917 Y13.040361 Z-0.225000
G02 X46.481129 Y13.214094 Z-0.225000 I0.250006 J-0.003062
G02 X46.654861 Y13.287306 Z-0.225000 I0.176794 J-0.176794
G01 X47.272222 Y13.287306 Z-0.225000
G02 X47.445955 Y13.214094 Z-0.225000 I-0.003062 J-0.250006
G02 X47.519167 Y13.040361 Z-0.225000 I-0.176794 J-0.176794
G01 X47.519167 Y10.517972 Z-0.225000
G01 X50.094445 Y10.517972 Z-0.225000
G01 X50.094445 Y13.666528 Z-0.225000
G03 X49.915603 Y14.584052 Z-0.225000 I-2.443151 J-0.000021
G03 X49.459445 Y15.262847 Z-0.225000 I-1.846645 J-0.748299
G03 X48.785664 Y15.713956 Z-0.225000 I-1.388018 J-1.344420
G03 X47.871945 Y15.889028 Z-0.225000 I-0.913771 J-2.297141
G01 X46.028681 Y15.889028 Z-0.225000
G01 X46.028681 Y15.889028 Z-0.225000
G00 Z2.900000

(End cutting path id: path14524)


(Start cutting path id: path13709)
(Change tool to Default tool)

G00 Z2.900000
G00 X46.028681 Y16.135972

G01 Z-0.225000 F300.0(Penetrate)
G03 X45.044878 Y15.950290 Z-0.225000 I0.000054 J-2.699368 F300.000000
G03 X44.264792 Y15.439236 Z-0.225000 I0.827318 J-2.113740
G03 X43.749518 Y14.656055 Z-0.225000 I1.654756 J-1.649801
G03 X43.559236 Y13.666528 Z-0.225000 I2.477793 J-0.989527
G01 X43.559236 Y6.240556 Z-0.225000
G03 X43.750275 Y5.255870 Z-0.225000 I2.633244 J-0.000000
G03 X44.264792 Y4.476667 Z-0.225000 I2.175948 J0.877332
G03 X45.044763 Y3.961034 Z-0.225000 I1.643983 J1.639040
G03 X46.028681 Y3.771111 Z-0.225000 I0.983917 J2.453694
G01 X47.871945 Y3.771111 Z-0.225000
G03 X48.876317 Y3.956732 Z-0.225000 I-0.000000 J2.810085
G03 X49.635834 Y4.450194 Z-0.225000 I-0.774050 J2.022624
G03 X50.149173 Y5.232962 Z-0.225000 I-1.640502 J1.635550
G03 X50.341389 Y6.240556 Z-0.225000 I-2.544897 J1.007615
G01 X50.341389 Y9.644861 Z-0.225000
G01 X47.272222 Y9.644861 Z-0.225000
G01 X47.272222 Y6.849083 Z-0.225000
G01 X46.654861 Y6.849083 Z-0.225000
G01 X46.654861 Y13.040361 Z-0.225000
G01 X47.272222 Y13.040361 Z-0.225000
G01 X47.272222 Y10.271028 Z-0.225000
G01 X50.341389 Y10.271028 Z-0.225000
G01 X50.341389 Y13.666528 Z-0.225000
G03 X50.147807 Y14.673211 Z-0.225000 I-2.714425 J-0.000021
G03 X49.635834 Y15.439236 Z-0.225000 I-2.059867 J-0.822613
G03 X48.872781 Y15.947070 Z-0.225000 I-1.549126 J-1.500476
G03 X47.871945 Y16.135972 Z-0.225000 I-1.000890 J-2.557136
G01 X46.028681 Y16.135972 Z-0.225000
G01 X46.028681 Y16.135972 Z-0.225000
G00 Z2.900000

(End cutting path id: path13709)


(Start cutting path id: path14526)
(Change tool to Default tool)

G00 Z2.900000
G00 X46.028681 Y16.382917

G01 Z-0.225000 F300.0(Penetrate)
G03 X44.956000 Y16.182137 Z-0.225000 I0.000055 J-2.966129 F300.000000
G03 X44.088403 Y15.615625 Z-0.225000 I0.905606 J-2.334514
G03 X43.518633 Y14.747154 Z-0.225000 I1.821808 J-1.816355
G03 X43.312292 Y13.666528 Z-0.225000 I2.726497 J-1.080626
G01 X43.312292 Y6.240556 Z-0.225000
G03 X43.519821 Y5.163697 Z-0.225000 I2.897645 J-0.000000
G03 X44.088403 Y4.300278 Z-0.225000 I2.396864 J0.959469
G03 X44.953538 Y3.730109 Z-0.225000 I1.809218 J1.803751
G03 X46.028681 Y3.524167 Z-0.225000 I1.075142 J2.703473
G01 X47.871945 Y3.524167 Z-0.225000
G03 X48.962466 Y3.723789 Z-0.225000 I-0.000000 J3.078527
G03 X49.812223 Y4.273805 Z-0.225000 I-0.850646 J2.245651
G03 X50.380484 Y5.142926 Z-0.225000 I-1.808186 J1.802591
G03 X50.588334 Y6.240556 Z-0.225000 I-2.794422 J1.097652
G01 X50.588334 Y9.644861 Z-0.225000
G03 X50.515122 Y9.818594 Z-0.225000 I-0.250006 J-0.003062
G03 X50.341389 Y9.891806 Z-0.225000 I-0.176794 J-0.176794
G01 X47.272222 Y9.891806 Z-0.225000
G03 X47.098490 Y9.818594 Z-0.225000 I0.003062 J-0.250006
G03 X47.025278 Y9.644861 Z-0.225000 I0.176794 J-0.176794
G01 X47.025278 Y7.096028 Z-0.225000
G01 X46.901806 Y7.096028 Z-0.225000
G01 X46.901806 Y12.793417 Z-0.225000
G01 X47.025278 Y12.793417 Z-0.225000
G01 X47.025278 Y10.271028 Z-0.225000
G03 X47.098490 Y10.097295 Z-0.225000 I0.250006 J0.003062
G03 X47.272222 Y10.024083 Z-0.225000 I0.176794 J0.176794
G01 X50.341389 Y10.024083 Z-0.225000
G03 X50.515122 Y10.097295 Z-0.225000 I-0.003062 J0.250006
G03 X50.588334 Y10.271028 Z-0.225000 I-0.176794 J0.176794
G01 X50.588334 Y13.666528 Z-0.225000
G03 X50.380072 Y14.762080 Z-0.225000 I-2.985806 J-0.000022
G03 X49.812223 Y15.615625 Z-0.225000 I-2.273125 J-0.896611
G03 X48.959522 Y16.180263 Z-0.225000 I-1.710167 J-1.656466
G03 X47.871945 Y16.382917 Z-0.225000 I-1.087632 J-2.817305
G01 X46.028681 Y16.382917 Z-0.225000
G01 X46.028681 Y16.382917 Z-0.225000
G00 Z2.900000

(End cutting path id: path14526)


(Start cutting path id: path14526)
(Change tool to Default tool)

G00 Z2.900000
G00 X50.914653 Y16.382917

G01 Z-0.225000 F300.0(Penetrate)
G03 X50.774030 Y16.293709 Z-0.225000 I0.055976 J-0.243678 F300.000000
G03 X50.720625 Y16.135972 Z-0.225000 I0.196599 J-0.154471
G01 X50.720625 Y6.240556 Z-0.225000
G03 X50.922955 Y5.166159 Z-0.225000 I2.953754 J0.000000
G03 X51.487917 Y4.300278 Z-0.225000 I2.356074 J0.920018
G03 X52.353052 Y3.730109 Z-0.225000 I1.809218 J1.803751
G03 X53.428195 Y3.524167 Z-0.225000 I1.075142 J2.703473
G01 X55.280278 Y3.524167 Z-0.225000
G03 X56.370799 Y3.723789 Z-0.225000 I-0.000000 J3.078527
G03 X57.220556 Y4.273805 Z-0.225000 I-0.850646 J2.245651
G03 X57.785215 Y5.145388 Z-0.225000 I-1.772683 J1.767142
G03 X57.987848 Y6.240556 Z-0.225000 I-2.858392 J1.095201
G01 X57.987848 Y16.135972 Z-0.225000
G03 X57.914636 Y16.309705 Z-0.225000 I-0.250006 J-0.003062
G03 X57.740903 Y16.382917 Z-0.225000 I-0.176794 J-0.176794
G01 X54.671736 Y16.382917 Z-0.225000
G03 X54.498004 Y16.309705 Z-0.225000 I0.003062 J-0.250006
G03 X54.424792 Y16.135972 Z-0.225000 I0.176794 J-0.176794
G01 X54.424792 Y7.096028 Z-0.225000
G01 X54.301320 Y7.096028 Z-0.225000
G01 X54.301320 Y16.135972 Z-0.225000
G03 X54.228108 Y16.309705 Z-0.225000 I-0.250006 J-0.003062
G03 X54.054375 Y16.382917 Z-0.225000 I-0.176794 J-0.176794
G01 X50.967570 Y16.382917 Z-0.225000
G03 X50.941111 Y16.384321 Z-0.225000 I-0.026458 J-0.248621
G03 X50.914653 Y16.382917 Z-0.225000 I-0.000000 J-0.250025
G01 X50.914653 Y16.382917 Z-0.225000
G00 Z2.900000

(End cutting path id: path14526)


(Start cutting path id: path13709)
(Change tool to Default tool)

G00 Z2.900000
G00 X50.967570 Y16.135972

G01 Z-0.225000 F300.0(Penetrate)
G01 X50.967570 Y6.240556 Z-0.225000 F300.000000
G03 X51.154341 Y5.255995 Z-0.225000 I2.688426 J-0.000000
G03 X51.664306 Y4.476667 Z-0.225000 I2.133874 J0.839815
G03 X52.444277 Y3.961034 Z-0.225000 I1.643983 J1.639040
G03 X53.428195 Y3.771111 Z-0.225000 I0.983917 J2.453694
G01 X55.280278 Y3.771111 Z-0.225000
G03 X56.284650 Y3.956732 Z-0.225000 I-0.000000 J2.810085
G03 X57.044167 Y4.450194 Z-0.225000 I-0.774050 J2.022624
G03 X57.552997 Y5.233084 Z-0.225000 I-1.604407 J1.599564
G03 X57.740903 Y6.240556 Z-0.225000 I-2.607032 J1.007505
G01 X57.740903 Y16.135972 Z-0.225000
G01 X54.671736 Y16.135972 Z-0.225000
G01 X54.671736 Y6.849083 Z-0.225000
G01 X54.054375 Y6.849083 Z-0.225000
G01 X54.054375 Y16.135972 Z-0.225000
G01 X50.967570 Y16.135972 Z-0.225000
G01 X50.967570 Y16.135972 Z-0.225000
G00 Z2.900000

(End cutting path id: path13709)


(Start cutting path id: path14524)
(Change tool to Default tool)

G00 Z2.900000
G00 X51.214514 Y15.889028

G01 Z-0.225000 F300.0(Penetrate)
G01 X51.214514 Y6.240556 Z-0.225000 F300.000000
G03 X51.385644 Y5.346103 Z-0.225000 I2.423101 J-0.000000
G03 X51.840695 Y4.653056 Z-0.225000 I1.911728 J0.759312
G03 X52.535707 Y4.191898 Z-0.225000 I1.478759 J1.474339
G03 X53.428195 Y4.018056 Z-0.225000 I0.892487 J2.204037
G01 X55.280278 Y4.018056 Z-0.225000
G03 X56.198110 Y4.189599 Z-0.225000 I0.000000 J2.541165
G03 X56.867778 Y4.626583 Z-0.225000 I-0.697257 J1.800150
G03 X57.320871 Y5.321169 Z-0.225000 I-1.436703 J1.432266
G03 X57.493959 Y6.240556 Z-0.225000 I-2.355375 J0.919418
G01 X57.493959 Y15.889028 Z-0.225000
G01 X54.918681 Y15.889028 Z-0.225000
G01 X54.918681 Y6.849083 Z-0.225000
G02 X54.845469 Y6.675351 Z-0.225000 I-0.250006 J0.003062
G02 X54.671736 Y6.602139 Z-0.225000 I-0.176794 J0.176794
G01 X54.054375 Y6.602139 Z-0.225000
G02 X53.880643 Y6.675351 Z-0.225000 I0.003062 J0.250006
G02 X53.807431 Y6.849083 Z-0.225000 I0.176794 J0.176794
G01 X53.807431 Y15.889028 Z-0.225000
G01 X51.214514 Y15.889028 Z-0.225000
G01 X51.214514 Y15.889028 Z-0.225000
G00 Z2.900000

(End cutting path id: path14524)


(Start cutting path id: path13717)
(Change tool to Default tool)

G00 Z2.900000
G00 X60.834056 Y16.139850

G01 Z-0.225000 F300.0(Penetrate)
G03 X59.849735 Y15.950758 Z-0.225000 I0.000053 J-2.656769 F300.000000
G03 X59.069411 Y15.435920 Z-0.225000 I0.856329 J-2.146688
G03 X58.556293 Y14.653955 Z-0.225000 I1.641165 J-1.636250
G03 X58.367563 Y13.666048 Z-0.225000 I2.491242 J-0.987907
G01 X58.367563 Y11.815715 Z-0.225000
G03 X58.556305 Y10.827742 Z-0.225000 I2.680158 J-0.000000
G03 X59.069411 Y10.045814 Z-0.225000 I2.154064 J0.854195
G03 X59.849736 Y9.530975 Z-0.225000 I1.636624 J1.631801
G03 X60.834056 Y9.341896 Z-0.225000 I0.984320 J2.467575
G01 X62.077329 Y9.341896 Z-0.225000
G01 X62.077329 Y6.847954 Z-0.225000
G01 X61.455693 Y6.847954 Z-0.225000
G01 X61.455693 Y8.718410 Z-0.225000
G01 X58.367563 Y8.718410 Z-0.225000
G01 X58.367563 Y6.244591 Z-0.225000
G03 X58.553542 Y5.233824 Z-0.225000 I2.839681 J-0.000000
G03 X59.049359 Y4.454597 Z-0.225000 I2.143101 J0.816285
G03 X59.826968 Y3.957108 Z-0.225000 I1.595822 J1.637908
G03 X60.834056 Y3.770772 Z-0.225000 I1.007088 J2.628330
G01 X62.678911 Y3.770772 Z-0.225000
G03 X63.683767 Y3.958667 Z-0.225000 I0.000000 J2.780925
G03 X64.443557 Y4.454597 Z-0.225000 I-0.791627 J2.042794
G03 X64.954971 Y5.237236 Z-0.225000 I-1.625182 J1.620384
G03 X65.145404 Y6.244591 Z-0.225000 I-2.569202 J1.007367
G01 X65.145404 Y9.945258 Z-0.225000
G03 X64.953394 Y10.950322 Z-0.225000 I-2.726529 J-0.000011
G03 X64.443557 Y11.715131 Z-0.225000 I-2.045194 J-0.811030
G03 X63.680275 Y12.226710 Z-0.225000 I-1.576541 J-1.527011
G03 X62.678911 Y12.419077 Z-0.225000 I-1.001364 J-2.510110
G01 X61.455693 Y12.419077 Z-0.225000
G01 X61.455693 Y13.042563 Z-0.225000
G01 X65.145404 Y13.042563 Z-0.225000
G01 X65.145404 Y16.139850 Z-0.225000
G01 X60.834056 Y16.139850 Z-0.225000
G00 Z2.900000

(End cutting path id: path13717)


(Start cutting path id: path13719)
(Change tool to Default tool)

G00 Z2.900000
G00 X68.236355 Y16.139850

G01 Z-0.225000 F300.0(Penetrate)
G03 X67.252034 Y15.950758 Z-0.225000 I0.000053 J-2.656769 F300.000000
G03 X66.471710 Y15.435920 Z-0.225000 I0.856329 J-2.146688
G03 X65.958590 Y14.653954 Z-0.225000 I1.641121 J-1.636225
G03 X65.769863 Y13.666048 Z-0.225000 I2.491265 J-0.987906
G01 X65.769863 Y6.244591 Z-0.225000
G03 X65.958597 Y5.256653 Z-0.225000 I2.680071 J0.000000
G03 X66.471710 Y4.474719 Z-0.225000 I2.154050 J0.854188
G03 X67.252043 Y3.959854 Z-0.225000 I1.636619 J1.631698
G03 X68.236355 Y3.770772 Z-0.225000 I0.984312 J2.467504
G01 X72.547703 Y3.770772 Z-0.225000
G01 X72.547703 Y6.847954 Z-0.225000
G01 X68.857992 Y6.847954 Z-0.225000
G01 X68.857992 Y7.471440 Z-0.225000
G01 X70.081211 Y7.471440 Z-0.225000
G03 X71.086067 Y7.659334 Z-0.225000 I-0.000000 J2.780925
G03 X71.845856 Y8.155264 Z-0.225000 I-0.791627 J2.042794
G03 X72.357268 Y8.937903 Z-0.225000 I-1.625166 J1.620367
G03 X72.547703 Y9.945258 Z-0.225000 I-2.569285 J1.007388
G01 X72.547703 Y13.666048 Z-0.225000
G03 X72.358969 Y14.653956 Z-0.225000 I-2.680086 J-0.000032
G03 X71.845856 Y15.435920 Z-0.225000 I-2.154275 J-0.854273
G03 X71.065518 Y15.950761 Z-0.225000 I-1.636705 J-1.631941
G03 X70.081211 Y16.139850 Z-0.225000 I-0.984360 J-2.467641
G01 X68.236355 Y16.139850 Z-0.225000
G00 Z2.900000

(End cutting path id: path13719)


(Start cutting path id: path13719)
(Change tool to Default tool)

G00 Z2.900000
G00 X69.479629 Y13.042563

G01 Z-0.225000 F300.0(Penetrate)
G01 X69.479629 Y10.568744 Z-0.225000 F300.000000
G01 X68.857992 Y10.568744 Z-0.225000
G01 X68.857992 Y13.042563 Z-0.225000
G01 X69.479629 Y13.042563 Z-0.225000
G00 Z2.900000

(End cutting path id: path13719)


(Start cutting path id: path13721)
(Change tool to Default tool)

G00 Z2.900000
G00 X75.638649 Y16.139850

G01 Z-0.225000 F300.0(Penetrate)
G03 X74.654332 Y15.950759 Z-0.225000 I0.000053 J-2.656759 F300.000000
G03 X73.874004 Y15.435920 Z-0.225000 I0.856339 J-2.146711
G03 X73.360886 Y14.653955 Z-0.225000 I1.641165 J-1.636250
G03 X73.172157 Y13.666048 Z-0.225000 I2.491242 J-0.987907
G01 X73.172157 Y3.770772 Z-0.225000
G01 X76.260286 Y3.770772 Z-0.225000
G01 X76.260286 Y13.042563 Z-0.225000
G01 X76.881923 Y13.042563 Z-0.225000
G01 X76.881923 Y10.267048 Z-0.225000
G01 X79.949997 Y10.267048 Z-0.225000
G01 X79.949997 Y16.139850 Z-0.225000
G01 X75.638649 Y16.139850 Z-0.225000
G00 Z2.900000

(End cutting path id: path13721)


(Footer)
M5
G00 X0.0000 Y0.0000
M2
(Using default footer. To add your own footer create file "footer" in the output dir.)
(end)
%